X: 12
T: The Flowers Of Edinburgh
R: reel
M: 4/4
L: 1/8
K: Gmaj
|: GE |D2 DE G2 GA | BGBd cBAG | FGFE DEFG | AFdF E2 EF |
D2 DE G2 GA | BGBd efge | dcBA GFGA | B2 G2 G2 :|
|: d2 |g2 g2 gbag | f2 f2 fagf | edef gfed | B2 e2 e2 ge |
dBGB d2 Bd | edef g2 fe | dcBA GFGA | B2 G2 G2 :|


Tune 2549	Setting 15823

